tools/download-figma-icons/icons/outlined-medium/heat-pipes.svg

<svg width="24" height="24" viewBox="0 0 24 24" fill="none" xmlns="http://www.w3.org/2000/svg">
<path d="M21 24H2.625C1.92881 24 1.26113 23.7234 0.768845 23.2312C0.276562 22.7389 0 22.0712 0 21.375C0 20.6788 0.276562 20.0111 0.768845 19.5188C1.26113 19.0266 1.92881 18.75 2.625 18.75H17.625C17.9234 18.75 18.2095 18.6315 18.4205 18.4205C18.6315 18.2095 18.75 17.9234 18.75 17.625C18.75 17.3266 18.6315 17.0405 18.4205 16.8295C18.2095 16.6185 17.9234 16.5 17.625 16.5H2.625C1.92881 16.5 1.26113 16.2234 0.768845 15.7312C0.276562 15.2389 0 14.5712 0 13.875C0 13.1788 0.276562 12.5111 0.768845 12.0188C1.26113 11.5266 1.92881 11.25 2.625 11.25H17.625C17.9234 11.25 18.2095 11.1315 18.4205 10.9205C18.6315 10.7095 18.75 10.4234 18.75 10.125C18.75 9.82663 18.6315 9.54048 18.4205 9.3295C18.2095 9.11853 17.9234 9 17.625 9H2.625C1.92881 9 1.26113 8.72344 0.768845 8.23116C0.276562 7.73887 0 7.07119 0 6.375C0 5.67881 0.276562 5.01113 0.768845 4.51884C1.26113 4.02656 1.92881 3.75 2.625 3.75H10.5C10.8978 3.75 11.2794 3.59196 11.5607 3.31066C11.842 3.02936 12 2.64782 12 2.25V0.75C12 0.551088 12.079 0.360322 12.2197 0.21967C12.3603 0.0790176 12.5511 0 12.75 0C12.9489 0 13.1397 0.0790176 13.2803 0.21967C13.421 0.360322 13.5 0.551088 13.5 0.75V2.25C13.5 3.04565 13.1839 3.80871 12.6213 4.37132C12.0587 4.93393 11.2956 5.25 10.5 5.25H2.625C2.32663 5.25 2.04048 5.36853 1.8295 5.5795C1.61853 5.79048 1.5 6.07663 1.5 6.375C1.5 6.67337 1.61853 6.95952 1.8295 7.1705C2.04048 7.38147 2.32663 7.5 2.625 7.5H17.625C18.3212 7.5 18.9889 7.77656 19.4812 8.26884C19.9734 8.76113 20.25 9.42881 20.25 10.125C20.25 10.8212 19.9734 11.4889 19.4812 11.9812C18.9889 12.4734 18.3212 12.75 17.625 12.75H2.625C2.32663 12.75 2.04048 12.8685 1.8295 13.0795C1.61853 13.2905 1.5 13.5766 1.5 13.875C1.5 14.1734 1.61853 14.4595 1.8295 14.6705C2.04048 14.8815 2.32663 15 2.625 15H17.625C18.3212 15 18.9889 15.2766 19.4812 15.7688C19.9734 16.2611 20.25 16.9288 20.25 17.625C20.25 18.3212 19.9734 18.9889 19.4812 19.4812C18.9889 19.9734 18.3212 20.25 17.625 20.25H2.625C2.32663 20.25 2.04048 20.3685 1.8295 20.5795C1.61853 20.7905 1.5 21.0766 1.5 21.375C1.5 21.6734 1.61853 21.9595 1.8295 22.1705C2.04048 22.3815 2.32663 22.5 2.625 22.5H21C21.3978 22.5 21.7794 22.342 22.0607 22.0607C22.342 21.7794 22.5 21.3978 22.5 21V0.75C22.5 0.551088 22.579 0.360322 22.7197 0.21967C22.8603 0.0790176 23.0511 0 23.25 0C23.4489 0 23.6397 0.0790176 23.7803 0.21967C23.921 0.360322 24 0.551088 24 0.75V21C24 21.7956 23.6839 22.5587 23.1213 23.1213C22.5587 23.6839 21.7956 24 21 24Z" fill="black"/>
</svg>

<svg xmlns="http://www.w3.org/2000/svg" width="24" height="24" fill="none" viewBox="0 0 24 24"><path fill="currentColor" d="M21 24H2.625a2.625 2.625 0 0 1 0-5.25h15a1.125 1.125 0 1 0 0-2.25h-15a2.625 2.625 0 0 1 0-5.25h15a1.125 1.125 0 1 0 0-2.25h-15a2.625 2.625 0 0 1 0-5.25H10.5a1.5 1.5 0 0 0 1.5-1.5V.75a.75.75 0 1 1 1.5 0v1.5a3 3 0 0 1-3 3H2.625a1.125 1.125 0 0 0 0 2.25h15a2.625 2.625 0 0 1 0 5.25h-15a1.125 1.125 0 1 0 0 2.25h15a2.625 2.625 0 0 1 0 5.25h-15a1.125 1.125 0 1 0 0 2.25H21a1.5 1.5 0 0 0 1.5-1.5V.75a.75.75 0 1 1 1.5 0V21a3 3 0 0 1-3 3"/></svg>
